resources/profiles/Anker/M5-CE-texture.svg

<svg xmlns="http://www.w3.org/2000/svg" xml:space="preserve" style="fill-rule:evenodd;clip-rule:evenodd;stroke-linejoin:round;stroke-miterlimit:2" viewBox="0 0 2776 2776"><path d="M893.14 1449.47c.413-1.1 30.874-84.83 40.354-110.92 4.138-11.39 7.841-21.52 8.229-22.51l.708-1.81h33.239l.979 2.79c1.208 3.45 47.501 130.53 48.131 132.12.42 1.08-.61 1.15-16.32 1.15h-16.781l-8.764-26.29H935.26l-4.458 13.14-4.459 13.15h-16.754c-13.13 0-16.688-.18-16.447-.82zm79.462-48.89 2.395-.39-7.653-22.92c-4.21-12.6-7.803-22.92-7.984-22.93-.335-.01-14.996 42.44-15.601 45.18l-.327 1.47h13.387c7.363-.01 14.465-.19 15.782-.41zm64.978-.24v-49.96h31.55v13.12l4.93-3.34c7.28-4.94 13.21-6.7 22.68-6.71 6.54-.02 8.26.22 12.82 1.79 10.52 3.6 19.28 11.3 24.02 21.1 4.45 9.2 4.55 10.18 4.56 43.89l.01 30.09-31.23-.36-.11-25.96c-.06-14.28-.27-27.35-.46-29.03-.94-8.56-8.01-15.35-16.8-16.14-7.58-.68-13.93 2.79-17.76 9.72l-2.34 4.23-.18 28.76-.2 28.75h-31.49zm113.06-18.09v-68.05l31.88.36.65 71.53 7.97-9.8c4.38-5.4 10.7-13.21 14.05-17.37 3.36-4.15 6.3-7.78 6.54-8.05.61-.69 33.2-.77 33.34-.07.06.31-8.44 11.18-18.91 24.15-12.42 15.41-18.82 23.84-18.45 24.32.32.41 9.49 11.93 20.39 25.6s19.82 24.99 19.82 25.14c0 .16-8.06.28-17.91.28h-17.92l-28.92-36.05-.35 36.05h-32.18zm129.81 66.97c-10.3-2.17-22.27-9.92-28.61-18.53-7.09-9.63-10.06-18.62-10.05-30.35.02-8.78 1.08-13.53 4.77-21.37 6.11-12.99 16.78-22.27 30.61-26.62 7.06-2.23 18.72-2.56 25.98-.74 6.74 1.68 14.76 5.55 19.85 9.58 13.19 10.46 20.74 28.93 18.5 45.29l-.42 3.05-70.87.34 2.04 4.09c2.24 4.47 5.66 7.81 10.42 10.15 2.48 1.23 4.14 1.51 8.96 1.52 6.95.01 10.34-1.24 14.98-5.52l2.91-2.68h29.19l-.43 1.47c-.88 2.99-5.89 11.12-9.03 14.64-6.71 7.52-17.27 13.82-26.45 15.76-5.78 1.22-16.33 1.18-22.35-.09zm30.89-62.05c-6.59-12.99-23.9-16.18-34.42-6.33-2.49 2.32-6 7.47-6 8.78 0 .69 4.19.86 21.05.86h21.04zm43.06 13.18v-49.97h30.9l.08 6.08c.05 3.35.05 6.3 0 6.58-.14.87.61.52 3.08-1.45 8.56-6.82 20.72-10.99 28.05-9.61l2.31.43v14.11c0 7.75-.22 14.09-.49 14.07-.27-.01-2.27-.45-4.44-.97-12.08-2.92-21.65.51-26.02 9.31l-1.58 3.19-.66 57.84-31.22.36zm76.91-18.09v-68.03h13.5l25.52 25.55c22.14 22.17 25.44 25.72 24.85 26.79-.37.68-5.1 5.62-10.52 10.98-8.4 8.31-10.03 9.65-11.06 9.08-.67-.36-3.27-2.75-5.79-5.31-2.53-2.56-4.74-4.65-4.93-4.65-.2 0-.27 15.9-.18 35.33.1 19.43.01 36-.17 36.81l-.35 1.48h-30.87zm110.43 31.22c0-20.24-.23-36.81-.51-36.81-.29 0-2.72 2.22-5.41 4.93-2.86 2.88-5.45 4.93-6.22 4.93-1.8 0-20.73-18.9-20.73-20.7 0-.87 8.67-9.99 25.14-26.46l25.15-25.14h13.47v136.06h-30.89zm80.3 35.48c-16.55-4.34-29.65-17.31-34.51-34.16-5.34-18.49-.64-37.83 12.38-50.91 8.91-8.97 17.24-12.8 28.96-13.34 9.63-.45 16.93 1.62 23.46 6.63 1.72 1.32 3.28 2.4 3.45 2.4.18 0 .33-2.21.33-4.93v-4.93H1687v100.57h-30.89v-9.34l-2.33 2.05c-7.39 6.48-20.4 8.93-31.74 5.96m20.73-29.59c4.46-2.19 7.8-5.6 10.16-10.4 1.2-2.44 1.5-4.16 1.51-8.63.01-6.69-1.49-10.61-5.76-15.01-4.25-4.39-8.32-6.2-14.72-6.55-4.93-.27-5.73-.13-9.53 1.65-12.96 6.09-16.97 21.56-8.5 32.79 2.67 3.55 8.02 7.11 12.18 8.1 4.38 1.05 10.09.29 14.66-1.95m56.72-37.11v-68.03h32.23l-.18 36.09c-.09 19.85-.01 35.98.2 35.86.2-.13 6.99-8.37 15.07-18.32l14.71-18.09h16.28c8.96 0 16.43.23 16.6.51.17.27-.8 1.81-2.16 3.42s-10.07 12.35-19.36 23.87c-11.15 13.83-16.7 21.2-16.32 21.7.32.4 9.3 11.68 19.95 25.06 10.64 13.37 19.58 24.69 19.85 25.14.38.65-3.28.82-17.47.81h-17.95l-14.46-18.02-14.46-18.02-.35 36.05h-32.18zm129.16 66.79c-9.62-2.61-16.86-6.87-23.77-13.98-9.16-9.45-14.01-21.3-14.02-34.27-.01-13.41 4.41-24.84 13.32-34.37 10.7-11.46 23.76-16.68 39.7-15.88 13.02.65 23.96 5.75 33.14 15.46 9 9.51 13.1 18.99 13.61 31.49.16 4.04.09 8.41-.15 9.69l-.44 2.35h-35.13c-23.74 0-35.14.22-35.14.68 0 1.53 3.33 7.05 5.69 9.43 1.39 1.41 4.16 3.33 6.15 4.27 3.07 1.47 4.49 1.72 9.53 1.71 5.15-.01 6.35-.24 9.34-1.81 1.89-.98 4.46-2.83 5.73-4.09l2.3-2.3h29.56l-.68 1.94c-1.05 3.01-5.38 9.86-8.55 13.54-6.04 7-13.62 12.12-22.37 15.09-4.73 1.6-6.69 1.89-14.35 2.07-7.15.18-9.76-.02-13.47-1.02m33.19-59.07c-.01-.27-.87-1.99-1.93-3.83-8.49-14.8-29.72-14.8-38.21 0-1.05 1.84-1.92 3.56-1.92 3.83-.01.28 9.46.5 21.03.5s21.03-.22 21.03-.5" style="fill:#88f387;fill-opacity:.9;fill-rule:nonzero" transform="translate(-825.477 1083.19)"/><path d="m1502.16 1372.88 21.12 21.12-21.12 21.12-21.12-21.12z" style="fill:#88f387;fill-opacity:.9;fill-rule:nonzero" transform="translate(-825.477 1083.19)"/></svg>

<?xml version="1.0" encoding="UTF-8" standalone="no"?>
<!DOCTYPE svg PUBLIC "-//W3C//DTD SVG 1.1//EN" "http://www.w3.org/Graphics/SVG/1.1/DTD/svg11.dtd">
<svg width="100%" height="100%" viewBox="0 0 2776 2776" version="1.1"
    xmlns="http://www.w3.org/2000/svg" xmlns:xlink="http://www.w3.org/1999/xlink"
    xml:space="preserve" xmlns:serif="http://www.serif.com/"
    style="fill-rule:evenodd;clip-rule:evenodd;stroke-linejoin:round;stroke-miterlimit:2;">
    <g transform="matrix(1,0,0,1,-825.477,1083.19)">
        <g id="Layer-1" serif:id="Layer 1">
            <g>
                <path id="path1042" d="M893.14,1449.47C893.553,1448.37 924.014,1364.64 933.494,1338.55C937.632,1327.16 941.335,1317.03 941.723,1316.04L942.431,1314.23L975.67,1314.23L976.649,1317.02C977.857,1320.47 1024.15,1447.55 1024.78,1449.14C1025.2,1450.22 1024.17,1450.29 1008.46,1450.29L991.679,1450.29L982.915,1424L935.26,1424L930.802,1437.14L926.343,1450.29L909.589,1450.29C896.459,1450.29 892.901,1450.11 893.142,1449.47L893.14,1449.47ZM972.602,1400.58L974.997,1400.19L967.344,1377.27C963.134,1364.67 959.541,1354.35 959.36,1354.34C959.025,1354.33 944.364,1396.78 943.759,1399.52L943.432,1400.99L956.819,1400.99C964.182,1400.98 971.284,1400.8 972.601,1400.58L972.602,1400.58ZM1037.58,1400.34L1037.58,1350.38L1069.13,1350.38L1069.13,1363.5L1074.06,1360.16C1081.34,1355.22 1087.27,1353.46 1096.74,1353.45C1103.28,1353.43 1105,1353.67 1109.56,1355.24C1120.08,1358.84 1128.84,1366.54 1133.58,1376.34C1138.03,1385.54 1138.13,1386.52 1138.14,1420.23L1138.15,1450.32L1106.92,1449.96L1106.81,1424C1106.75,1409.72 1106.54,1396.65 1106.35,1394.97C1105.41,1386.41 1098.34,1379.62 1089.55,1378.83C1081.97,1378.15 1075.62,1381.62 1071.79,1388.55L1069.45,1392.78L1069.27,1421.54L1069.07,1450.29L1037.58,1450.29L1037.58,1400.34ZM1150.64,1382.25L1150.64,1314.2L1182.52,1314.56L1183.17,1386.09L1191.14,1376.29C1195.52,1370.89 1201.84,1363.08 1205.19,1358.92C1208.55,1354.77 1211.49,1351.14 1211.73,1350.87C1212.34,1350.18 1244.93,1350.1 1245.07,1350.8C1245.13,1351.11 1236.63,1361.98 1226.16,1374.95C1213.74,1390.36 1207.34,1398.79 1207.71,1399.27C1208.03,1399.68 1217.2,1411.2 1228.1,1424.87C1239,1438.54 1247.92,1449.86 1247.92,1450.01C1247.92,1450.17 1239.86,1450.29 1230.01,1450.29L1212.09,1450.29L1183.17,1414.24L1182.82,1450.29L1150.64,1450.29L1150.64,1382.25ZM1280.45,1449.22C1270.15,1447.05 1258.18,1439.3 1251.84,1430.69C1244.75,1421.06 1241.78,1412.07 1241.79,1400.34C1241.81,1391.56 1242.87,1386.81 1246.56,1378.97C1252.67,1365.98 1263.34,1356.7 1277.17,1352.35C1284.23,1350.12 1295.89,1349.79 1303.15,1351.61C1309.89,1353.29 1317.91,1357.16 1323,1361.19C1336.19,1371.65 1343.74,1390.12 1341.5,1406.48L1341.08,1409.53L1270.21,1409.87L1272.25,1413.96C1274.49,1418.43 1277.91,1421.77 1282.67,1424.11C1285.15,1425.34 1286.81,1425.62 1291.63,1425.63C1298.58,1425.64 1301.97,1424.39 1306.61,1420.11L1309.52,1417.43L1338.71,1417.43L1338.28,1418.9C1337.4,1421.89 1332.39,1430.02 1329.25,1433.54C1322.54,1441.06 1311.98,1447.36 1302.8,1449.3C1297.02,1450.52 1286.47,1450.48 1280.45,1449.21L1280.45,1449.22ZM1311.34,1387.17C1304.75,1374.18 1287.44,1370.99 1276.92,1380.84C1274.43,1383.16 1270.92,1388.31 1270.92,1389.62C1270.92,1390.31 1275.11,1390.48 1291.97,1390.48L1313.01,1390.48L1311.34,1387.17ZM1354.4,1400.35L1354.4,1350.38L1385.3,1350.38L1385.38,1356.46C1385.43,1359.81 1385.43,1362.76 1385.38,1363.04C1385.24,1363.91 1385.99,1363.56 1388.46,1361.59C1397.02,1354.77 1409.18,1350.6 1416.51,1351.98L1418.82,1352.41L1418.82,1366.52C1418.82,1374.27 1418.6,1380.61 1418.33,1380.59C1418.06,1380.58 1416.06,1380.14 1413.89,1379.62C1401.81,1376.7 1392.24,1380.13 1387.87,1388.93L1386.29,1392.12L1385.63,1449.96L1354.41,1450.32L1354.4,1400.35ZM1431.31,1382.26L1431.31,1314.23L1444.81,1314.23L1470.33,1339.78C1492.47,1361.95 1495.77,1365.5 1495.18,1366.57C1494.81,1367.25 1490.08,1372.19 1484.66,1377.55C1476.26,1385.86 1474.63,1387.2 1473.6,1386.63C1472.93,1386.27 1470.33,1383.88 1467.81,1381.32C1465.28,1378.76 1463.07,1376.67 1462.88,1376.67C1462.68,1376.67 1462.61,1392.57 1462.7,1412C1462.8,1431.43 1462.71,1448 1462.53,1448.81L1462.18,1450.29L1431.31,1450.29L1431.31,1382.26ZM1541.74,1413.48C1541.74,1393.24 1541.51,1376.67 1541.23,1376.67C1540.94,1376.67 1538.51,1378.89 1535.82,1381.6C1532.96,1384.48 1530.37,1386.53 1529.6,1386.53C1527.8,1386.53 1508.87,1367.63 1508.87,1365.83C1508.87,1364.96 1517.54,1355.84 1534.01,1339.37L1559.16,1314.23L1572.63,1314.23L1572.63,1450.29L1541.74,1450.29L1541.74,1413.48ZM1622.04,1448.96C1605.49,1444.62 1592.39,1431.65 1587.53,1414.8C1582.19,1396.31 1586.89,1376.97 1599.91,1363.89C1608.82,1354.92 1617.15,1351.09 1628.87,1350.55C1638.5,1350.1 1645.8,1352.17 1652.33,1357.18C1654.05,1358.5 1655.61,1359.58 1655.78,1359.58C1655.96,1359.58 1656.11,1357.37 1656.11,1354.65L1656.11,1349.72L1687,1349.72L1687,1450.29L1656.11,1450.29L1656.11,1440.95L1653.78,1443C1646.39,1449.48 1633.38,1451.93 1622.04,1448.96L1622.04,1448.96ZM1642.77,1419.37C1647.23,1417.18 1650.57,1413.77 1652.93,1408.97C1654.13,1406.53 1654.43,1404.81 1654.44,1400.34C1654.45,1393.65 1652.95,1389.73 1648.68,1385.33C1644.43,1380.94 1640.36,1379.13 1633.96,1378.78C1629.03,1378.51 1628.23,1378.65 1624.43,1380.43C1611.47,1386.52 1607.46,1401.99 1615.93,1413.22C1618.6,1416.77 1623.95,1420.33 1628.11,1421.32C1632.49,1422.37 1638.2,1421.61 1642.77,1419.37L1642.77,1419.37ZM1699.49,1382.26L1699.49,1314.23L1731.72,1314.23L1731.54,1350.32C1731.45,1370.17 1731.53,1386.3 1731.74,1386.18C1731.94,1386.05 1738.73,1377.81 1746.81,1367.86L1761.52,1349.77L1777.8,1349.77C1786.76,1349.77 1794.23,1350 1794.4,1350.28C1794.57,1350.55 1793.6,1352.09 1792.24,1353.7C1790.88,1355.31 1782.17,1366.05 1772.88,1377.57C1761.73,1391.4 1756.18,1398.77 1756.56,1399.27C1756.88,1399.67 1765.86,1410.95 1776.51,1424.33C1787.15,1437.7 1796.09,1449.02 1796.36,1449.47C1796.74,1450.12 1793.08,1450.29 1778.89,1450.28L1760.94,1450.28L1746.48,1432.26L1732.02,1414.24L1731.67,1450.29L1699.49,1450.29L1699.49,1382.26L1699.49,1382.26ZM1828.65,1449.05C1819.03,1446.44 1811.79,1442.18 1804.88,1435.07C1795.72,1425.62 1790.87,1413.77 1790.86,1400.8C1790.85,1387.39 1795.27,1375.96 1804.18,1366.43C1814.88,1354.97 1827.94,1349.75 1843.88,1350.55C1856.9,1351.2 1867.84,1356.3 1877.02,1366.01C1886.02,1375.52 1890.12,1385 1890.63,1397.5C1890.79,1401.54 1890.72,1405.91 1890.48,1407.19L1890.04,1409.54L1854.91,1409.54C1831.17,1409.54 1819.77,1409.76 1819.77,1410.22C1819.77,1411.75 1823.1,1417.27 1825.46,1419.65C1826.85,1421.06 1829.62,1422.98 1831.61,1423.92C1834.68,1425.39 1836.1,1425.64 1841.14,1425.63C1846.29,1425.62 1847.49,1425.39 1850.48,1423.82C1852.37,1422.84 1854.94,1420.99 1856.21,1419.73L1858.51,1417.43L1888.07,1417.43L1887.39,1419.37C1886.34,1422.38 1882.01,1429.23 1878.84,1432.91C1872.8,1439.91 1865.22,1445.03 1856.47,1448C1851.74,1449.6 1849.78,1449.89 1842.12,1450.07C1834.97,1450.25 1832.36,1450.05 1828.65,1449.05L1828.65,1449.05ZM1861.84,1389.98C1861.83,1389.71 1860.97,1387.99 1859.91,1386.15C1851.42,1371.35 1830.19,1371.35 1821.7,1386.15C1820.65,1387.99 1819.78,1389.71 1819.78,1389.98C1819.77,1390.26 1829.24,1390.48 1840.81,1390.48C1852.38,1390.48 1861.84,1390.26 1861.84,1389.98L1861.84,1389.98Z" style="fill:rgb(136,243,135);fill-opacity:0.9;fill-rule:nonzero;"/>
                <path id="path1036" d="M1502.16,1372.88L1523.28,1394L1502.16,1415.12L1481.04,1394L1502.16,1372.88Z" style="fill:rgb(136,243,135);fill-opacity:0.9;fill-rule:nonzero;"/>
            </g>
        </g>
    </g>
</svg>
